resources/svg/headset.svg

<svg width="15" height="15" viewBox="0 0 15 15" fill="none" xmlns="http://www.w3.org/2000/svg">
<path d="M2.5 6C1.97535 6 1.48846 6.16161 1.08637 6.43776C1.5934 3.3532 4.27189 1 7.5 1C10.7281 1 13.4066 3.3532 13.9136 6.43777C13.5115 6.16161 13.0246 6 12.5 6C11.6716 6 11 6.67157 11 7.5V11.5C11 12.1333 11.3925 12.6749 11.9475 12.895C11.7741 13.5318 11.1917 14 10.5 14H8V15H10.5C11.7242 15 12.7429 14.12 12.9581 12.9581C14.12 12.7429 15 11.7242 15 10.5V7.5C15 3.35786 11.6421 0 7.5 0C3.35786 0 0 3.35786 0 7.5V10.5C0 11.8807 1.11929 13 2.5 13C3.32843 13 4 12.3284 4 11.5V7.5C4 6.67157 3.32843 6 2.5 6Z" fill="black"/>
</svg>

<svg viewBox="0 0 15 15" fill="none" xmlns="http://www.w3.org/2000/svg" fill="currentColor"><path d="M2.5 6a2.49 2.49 0 00-1.414.438 6.502 6.502 0 0112.828 0A2.488 2.488 0 0012.5 6 1.5 1.5 0 0011 7.5v4a1.5 1.5 0 00.947 1.395A1.5 1.5 0 0110.5 14H8v1h2.5a2.5 2.5 0 002.458-2.042A2.5 2.5 0 0015 10.5v-3a7.5 7.5 0 00-15 0v3A2.5 2.5 0 002.5 13 1.5 1.5 0 004 11.5v-4A1.5 1.5 0 002.5 6z" fill="currentColor"/></svg>
